images/development-services/graph-line.svg

<svg width="1920" height="446" fill="none" xmlns="http://www.w3.org/2000/svg"><g clip-path="url(#a)"><path d="m0 445 125.622-115 159.288 37.5L498.969 234l292.949 172 476.862-293 261.29 121L1741 29.5 1920 1" stroke="#A1BCDF" stroke-width="2"/><path d="M126 343.5c6.627 0 12-5.373 12-12s-5.373-12-12-12-12 5.373-12 12 5.373 12 12 12Z" fill="#C3D4EA"/><path d="M126 334.5a3 3 0 1 0 0-6 3 3 0 0 0 0 6Z" fill="#E3EFFF"/><path d="M499 249c6.627 0 12-5.373 12-12s-5.373-12-12-12-12 5.373-12 12 5.373 12 12 12Z" fill="#C3D4EA"/><path d="M499 240a3 3 0 1 0 0-6 3 3 0 0 0 0 6Z" fill="#E3EFFF"/><path d="M1266 128c6.63 0 12-5.373 12-12s-5.37-12-12-12-12 5.373-12 12 5.37 12 12 12Z" fill="#C3D4EA"/><path d="M1266 119c1.66 0 3-1.343 3-3s-1.34-3-3-3-3 1.343-3 3 1.34 3 3 3Z" fill="#E3EFFF"/><path d="M1741 43c6.63 0 12-5.373 12-12s-5.37-12-12-12-12 5.373-12 12 5.37 12 12 12Z" fill="#C3D4EA"/><path d="M1741 34c1.66 0 3-1.343 3-3s-1.34-3-3-3-3 1.343-3 3 1.34 3 3 3Z" fill="#E3EFFF"/><path d="M1526 249c12.15 0 22-9.85 22-22s-9.85-22-22-22-22 9.85-22 22 9.85 22 22 22Z" fill="#E7F1FF"/><path d="M1526 245c9.94 0 18-8.059 18-18s-8.06-18-18-18-18 8.059-18 18 8.06 18 18 18Z" fill="#D7E3F2"/><path d="M1526 240c7.18 0 13-5.82 13-13s-5.82-13-13-13-13 5.82-13 13 5.82 13 13 13Z" fill="#C6D9F1"/><path d="M1526 234c3.87 0 7-3.134 7-7s-3.13-7-7-7-7 3.134-7 7 3.13 7 7 7Z" fill="#F1F7FF"/></g><defs><clipPath id="a"><path fill="#fff" d="M0 0h1920v446H0z"/></clipPath></defs></svg>

<svg width="1920" height="446" viewBox="0 0 1920 446" fill="none" xmlns="http://www.w3.org/2000/svg">
    <g clip-path="url(#clip0_10534_3897)">
        <path d="M0 445L125.622 330L284.91 367.5L498.969 234L791.918 406L1268.78 113L1530.07 234L1741 29.5L1920 1" stroke="#A1BCDF" stroke-width="2"/>
        <path d="M126 343.5C132.627 343.5 138 338.127 138 331.5C138 324.873 132.627 319.5 126 319.5C119.373 319.5 114 324.873 114 331.5C114 338.127 119.373 343.5 126 343.5Z" fill="#C3D4EA"/>
        <path d="M126 334.5C127.657 334.5 129 333.157 129 331.5C129 329.843 127.657 328.5 126 328.5C124.343 328.5 123 329.843 123 331.5C123 333.157 124.343 334.5 126 334.5Z" fill="#E3EFFF"/>
        <path d="M499 249C505.627 249 511 243.627 511 237C511 230.373 505.627 225 499 225C492.373 225 487 230.373 487 237C487 243.627 492.373 249 499 249Z" fill="#C3D4EA"/>
        <path d="M499 240C500.657 240 502 238.657 502 237C502 235.343 500.657 234 499 234C497.343 234 496 235.343 496 237C496 238.657 497.343 240 499 240Z" fill="#E3EFFF"/>
        <path d="M1266 128C1272.63 128 1278 122.627 1278 116C1278 109.373 1272.63 104 1266 104C1259.37 104 1254 109.373 1254 116C1254 122.627 1259.37 128 1266 128Z" fill="#C3D4EA"/>
        <path d="M1266 119C1267.66 119 1269 117.657 1269 116C1269 114.343 1267.66 113 1266 113C1264.34 113 1263 114.343 1263 116C1263 117.657 1264.34 119 1266 119Z" fill="#E3EFFF"/>
        <path d="M1741 43C1747.63 43 1753 37.6274 1753 31C1753 24.3726 1747.63 19 1741 19C1734.37 19 1729 24.3726 1729 31C1729 37.6274 1734.37 43 1741 43Z" fill="#C3D4EA"/>
        <path d="M1741 34C1742.66 34 1744 32.6569 1744 31C1744 29.3431 1742.66 28 1741 28C1739.34 28 1738 29.3431 1738 31C1738 32.6569 1739.34 34 1741 34Z" fill="#E3EFFF"/>
        <path d="M1526 249C1538.15 249 1548 239.15 1548 227C1548 214.85 1538.15 205 1526 205C1513.85 205 1504 214.85 1504 227C1504 239.15 1513.85 249 1526 249Z" fill="#E7F1FF"/>
        <path d="M1526 245C1535.94 245 1544 236.941 1544 227C1544 217.059 1535.94 209 1526 209C1516.06 209 1508 217.059 1508 227C1508 236.941 1516.06 245 1526 245Z" fill="#D7E3F2"/>
        <path d="M1526 240C1533.18 240 1539 234.18 1539 227C1539 219.82 1533.18 214 1526 214C1518.82 214 1513 219.82 1513 227C1513 234.18 1518.82 240 1526 240Z" fill="#C6D9F1"/>
        <path d="M1526 234C1529.87 234 1533 230.866 1533 227C1533 223.134 1529.87 220 1526 220C1522.13 220 1519 223.134 1519 227C1519 230.866 1522.13 234 1526 234Z" fill="#F1F7FF"/>
    </g>
    <defs>
        <clipPath id="clip0_10534_3897">
            <rect width="1920" height="446" fill="white"/>
        </clipPath>
    </defs>
</svg>
